X: 84
T: 9 Years Later
R: jig
M: 6/8
K: Fmajor
|:AAA AGA|FFF ABc|fag- gfd|dcA cde|fff fec|
dcA cde|1 fAc fag-|gfd dcB:|2 fca gf(e|ee)A cde||
|:fff fec|dfg aba-|afc bag-|gfa ecB|A-Af- fec|
[1 ddd cde|fca gf(e|ee)A cde:|2 ddd dcB|A-Ad- dcA|G-G(c cc)B||

